X:1
T:Solo per il cembalo
T:Solo per il cembalo
T:C. Ph. E. Bach BWV Anhang 129 
C:C. Ph. E. Bach
%%score { 1 | ( 2 3 ) }
L:1/8
Q:1/4=70
M:2/4
K:Eb
V:1 treble nm="Cembalo" snm="Cbl."
V:2 bass 
V:3 bass 
V:1
"^Allegro" E/G/ | BBBc/d/ | e e2 f/g/ | a/g/f/e/ d/c/B/A/ | G/B/ e2 f/g/ | a/c'/a/f/ d/f/d/A/ | %6
 PAG z g | Pg f2 B- | B=A/G/ A/B/c/d/ | e/e/(3g/f/e/ c'/e/(3g/f/e/ | Ped (3z/ B/c/ (3d/e/f/ | %11
 (3g/e/d/ (3c/=B/c/ (3G/e/d/ (3c/B/c/ | (3f/d/c/ (3_B/=A/B/ (3F/d/c/ (3B/A/B/ | E/eed/c/B/ | %14
 =A/cB/A/G/F/E/ | D/B/G/E/ B,PC | B,2 (3z/ =E/F/ (3G/=A/B/ | %17
 (3z/ G/!courtesy!=A/ (3B/c/_d/ z/ b/g/d/ | P_dc/g/ gf/e/ | (3=d/f/e/ (3d/c/B/ (BPc) | B3 :: B/d/ | %22
 fFFG/=A/ | B B,2 C/D/ | E/d/c/B/ =A/G/F/E/ | D/F/ B2 c/d/ | e/g/(b/<=a/) (g/<f/)(c'/<e/) | %27
 Ped z _a | ac- (3c/=B/c/ (3d/c/B/ | c/G/c- (3c/c/d/ (3e/d/c/ | d/G/d- (3d/d/e/ (3f/e/d/ | %31
 e/d/c (3z/ c/d/ (3e/f/g/ | gB- (3B/=A/B/ (3c/B/A/ | B/F=ABd/- | d/cB/ =A/G/F/E/ | D/F/B z d/G/ | %36
 cc- (3c/e/d/ (3c/=B/c/ | (3^f/c/d/ (3e/d/c/ (3=a/c/d/ (3e/d/c/ | B/dgb/=a/g/ | ^f/=ace/d/c/ | %40
 B/dgb/=a/g/ | ^f/=ace/d/c/ | (3B/g/=f/ (3e/d/c/ (3B/=A/G/ PA | G2 z E/G/ | BBBc/d/ | e e2 f/g/ | %46
 a/g/f/e/ _d/c/d/b/ | P_dc z F/=A/ | cccd/=e/ | f f2 g/=a/ | b/=a/g/f/ e/d/e/c'/ | %51
 Ped (3z/ B/c/ (3d/e/f/ | g/d/e/=A/ B/g/f/e/ | f/c/d/=A/ B/_a/g/f/ | g/d/e/=A/ B/g/f/e/ | %55
 f/c/d/=A/ (3B/G/_A/ (3B/c/_d/ | c/aag/f/e/ | d/fe/ d/c/B/A/ | G/<E/A/<F/ (EPF) | %59
 E2 (3z/ =A/B/ (3c/d/e/ | (3z/ c/d/ (3e/f/_g/ z/ c'/=a/e/ | Ped/g/ f/d/B/_A/ | %62
 G/e/c/A/"_(          )" (EPF) | E3 :| %64
V:2
 z | G,2 F,2 | G, x x2 | F,,A,,B,,B,,, | E,,E,/F,/G,E, | F,A,,B,,B,,, | E,,E,/D,/E,E, | z B,B,F, | %8
 E,2 z B,, | =A,,2 F,,2 | B,,B,/=A,/ B,B,, | E,2 E,,2 | D,,2 D,2 | C,B,,=A,,G,, | F,,F, z =A,, | %15
 B,,E,F,F,, | z =E,E, z | _D z [B,D] z | F,F,,=A,,A,, | B,,D,F,F,, | B,,D,/F,/B, :: z | D,2 C,2 | %23
 D, x x2 | C,,E,,F,,=A,, | B,,B,,/C,/D,B,, | C,C,=A,,F,, | B,,B,/=A,/B, z | z DDD | z G,G,G, | %30
 z G,G,G, | G, x x2 | z CCC | F,F,F,F, | F, x x2 | B,,B,,/C,/ D,B,, | =A,,=A,/G,/ ^F,A, | %37
 D,D,, z ^F,, | D,D,=E,E, | D, x x2 | D,D,=E,E, | D, x x2 | G,,C,D,D,, | G,,/G,/D,/B,,/ G,, z | %44
 z G,G, z | z B,B, z | z B,B,B, | A,,A,/G,/ A, z | z =A,A, z | z CC z | z CCC | B,,B,/=A,/ B,B,, | %52
 E,2 z/ E,/D,/C,/ | D,2 z/ F,/E,/D,/ | E,2 z/ E,/D,/C,/ | D,B,,G,,E,, | A,,G,,F,,A,, | B,,D,F,D, | %58
 E,C,B,,B,,, | z =A,A, z | _G, z [E,G,] z | B,,B, z D, | E,A,,B,,B,,, | E,,G,,/B,,/E, :| %64
V:3
 x | E,2 D,2 | C,B,,/A,,/ G,,E,, | x4 | x4 | x4 | x4 | z D,D,D, | C,2 x2 | x4 | x4 | x4 | x4 | x4 | %14
 x4 | x4 | z G,,G,, z | =E, z E, z | x4 | x4 | x3 :: x | B,,2 =A,,2 | G,,F,,/E,,/ D,,B,,, | x4 | %25
 x4 | x4 | x4 | z F,F,F, | z E,/D,/E,C, | z =B,,/=A,,/B,,G,, | C,C,/D,/E,C, | z E,E,E, | %33
 D,D,D,B,, | =A,,G,,F,,A,, | x4 | x4 | x4 | G,,G,,^C,C, | D,D,,^F,,F,, | G,,G,,^C,C, | %41
 D,D,,^F,,F,, | x4 | x4 | z E,E, z | z G,G, z | z G,G,G, | x4 | z F,F, z | z =A,A, z | z =A,A,A, | %51
 x4 | x4 | x4 | x4 | x4 | x4 | x4 | x4 | z C,C, z | =A,, z A,, z | x4 | x4 | x3 :| %64

